images/Chk1N47.svg

<?xml version="1.0" encoding="UTF-8"?>
<svg xmlns="http://www.w3.org/2000/svg" xmlns:xlink="http://www.w3.org/1999/xlink" width="300pt" height="300pt" viewBox="0 0 300 300" version="1.1">
<defs>
<g>
<symbol overflow="visible" id="glyph0-0">
<path style="stroke:none;" d="M 0.453125 1.59375 L 0.453125 -6.34375 L 4.953125 -6.34375 L 4.953125 1.59375 Z M 0.953125 1.09375 L 4.453125 1.09375 L 4.453125 -5.84375 L 0.953125 -5.84375 Z M 0.953125 1.09375 "/>
</symbol>
<symbol overflow="visible" id="glyph0-1">
<path style="stroke:none;" d="M 0.890625 -6.5625 L 2.078125 -6.5625 L 4.984375 -1.078125 L 4.984375 -6.5625 L 5.84375 -6.5625 L 5.84375 0 L 4.65625 0 L 1.75 -5.484375 L 1.75 0 L 0.890625 0 Z M 0.890625 -6.5625 "/>
</symbol>
<symbol overflow="visible" id="glyph0-2">
<path style="stroke:none;" d="M 0.890625 -6.5625 L 1.765625 -6.5625 L 1.765625 -3.875 L 5 -3.875 L 5 -6.5625 L 5.890625 -6.5625 L 5.890625 0 L 5 0 L 5 -3.125 L 1.765625 -3.125 L 1.765625 0 L 0.890625 0 Z M 0.890625 -6.5625 "/>
</symbol>
<symbol overflow="visible" id="glyph0-3">
<path style="stroke:none;" d="M 0.890625 -6.5625 L 4.65625 -6.5625 L 4.65625 -5.8125 L 1.765625 -5.8125 L 1.765625 -3.875 L 4.375 -3.875 L 4.375 -3.140625 L 1.765625 -3.140625 L 1.765625 0 L 0.890625 0 Z M 0.890625 -6.5625 "/>
</symbol>
</g>
</defs>
<g id="surface257">
<rect x="0" y="0" width="300" height="300" style="fill:rgb(100%,100%,100%);fill-opacity:1;stroke:none;"/>
<path style="fill:none;stroke-width:1.2;stroke-linecap:butt;stroke-linejoin:miter;stroke:rgb(0%,0%,0%);stroke-opacity:1;stroke-miterlimit:10;" d="M 35.25 171.625 L 52.722656 164.285156 "/>
<path style="fill:none;stroke-width:1.2;stroke-linecap:butt;stroke-linejoin:miter;stroke:rgb(0%,0%,0%);stroke-opacity:1;stroke-miterlimit:10;" d="M 52.722656 164.285156 L 55.101562 145.488281 "/>
<path style="fill:none;stroke-width:1.2;stroke-linecap:butt;stroke-linejoin:miter;stroke:rgb(0%,0%,0%);stroke-opacity:1;stroke-miterlimit:10;" d="M 67.8125 175.746094 L 52.722656 164.285156 "/>
<path style="fill:none;stroke-width:1.2;stroke-linecap:butt;stroke-linejoin:miter;stroke:rgb(0%,0%,0%);stroke-opacity:1;stroke-miterlimit:10;" d="M 55.101562 145.488281 L 72.570312 138.148438 "/>
<path style="fill:none;stroke-width:1.2;stroke-linecap:butt;stroke-linejoin:miter;stroke:rgb(0%,0%,0%);stroke-opacity:1;stroke-miterlimit:10;" d="M 72.570312 138.148438 L 87.664062 149.609375 "/>
<path style="fill:none;stroke-width:1.2;stroke-linecap:butt;stroke-linejoin:miter;stroke:rgb(0%,0%,0%);stroke-opacity:1;stroke-miterlimit:10;" d="M 87.664062 149.609375 L 96.398438 145.941406 "/>
<path style="fill:none;stroke-width:1.2;stroke-linecap:butt;stroke-linejoin:miter;stroke:rgb(0%,0%,100%);stroke-opacity:1;stroke-miterlimit:10;" d="M 96.398438 145.941406 L 105.132812 142.273438 "/>
<path style="fill:none;stroke-width:1.2;stroke-linecap:butt;stroke-linejoin:miter;stroke:rgb(0%,0%,0%);stroke-opacity:1;stroke-miterlimit:10;" d="M 87.664062 149.609375 L 85.28125 168.410156 "/>
<path style="fill:none;stroke-width:1.2;stroke-linecap:butt;stroke-linejoin:miter;stroke:rgb(0%,0%,100%);stroke-opacity:1;stroke-miterlimit:10;" d="M 105.132812 142.273438 L 112.679688 148.003906 "/>
<path style="fill:none;stroke-width:1.2;stroke-linecap:butt;stroke-linejoin:miter;stroke:rgb(0%,0%,0%);stroke-opacity:1;stroke-miterlimit:10;" d="M 112.679688 148.003906 L 120.222656 153.734375 "/>
<path style=" stroke:none;fill-rule:nonzero;fill:rgb(100%,100%,100%);fill-opacity:1;" d="M 98.132812 136.773438 L 112.132812 136.773438 L 112.132812 147.773438 L 98.132812 147.773438 Z M 98.132812 136.773438 "/>
<g style="fill:rgb(0%,0%,100%);fill-opacity:1;">
  <use xlink:href="#glyph0-1" x="98.132812" y="145.436523"/>
  <use xlink:href="#glyph0-2" x="105.110352" y="145.436523"/>
</g>
<path style="fill:none;stroke-width:1.2;stroke-linecap:butt;stroke-linejoin:miter;stroke:rgb(0%,0%,0%);stroke-opacity:1;stroke-miterlimit:10;" d="M 120.222656 153.734375 L 137.695312 146.394531 "/>
<path style="fill:none;stroke-width:1.2;stroke-linecap:butt;stroke-linejoin:miter;stroke:rgb(0%,0%,0%);stroke-opacity:1;stroke-miterlimit:10;" d="M 137.695312 146.394531 L 152.785156 157.855469 "/>
<path style="fill:none;stroke-width:1.2;stroke-linecap:butt;stroke-linejoin:miter;stroke:rgb(0%,0%,0%);stroke-opacity:1;stroke-miterlimit:10;" d="M 141.898438 143.992188 L 153.972656 153.160156 "/>
<path style="fill:none;stroke-width:1.2;stroke-linecap:butt;stroke-linejoin:miter;stroke:rgb(0%,0%,0%);stroke-opacity:1;stroke-miterlimit:10;" d="M 140.074219 127.597656 L 137.695312 146.394531 "/>
<path style="fill:none;stroke-width:1.2;stroke-linecap:butt;stroke-linejoin:miter;stroke:rgb(0%,0%,0%);stroke-opacity:1;stroke-miterlimit:10;" d="M 152.785156 157.855469 L 170.253906 150.519531 "/>
<path style="fill:none;stroke-width:1.2;stroke-linecap:butt;stroke-linejoin:miter;stroke:rgb(0%,0%,0%);stroke-opacity:1;stroke-miterlimit:10;" d="M 170.253906 150.519531 L 187.398438 158.589844 "/>
<path style="fill:none;stroke-width:1.2;stroke-linecap:butt;stroke-linejoin:miter;stroke:rgb(0%,0%,0%);stroke-opacity:1;stroke-miterlimit:10;" d="M 170.253906 150.519531 L 172.636719 131.71875 "/>
<path style="fill:none;stroke-width:1.2;stroke-linecap:butt;stroke-linejoin:miter;stroke:rgb(0%,0%,0%);stroke-opacity:1;stroke-miterlimit:10;" d="M 174.917969 149.199219 L 176.820312 134.160156 "/>
<path style="fill:none;stroke-width:1.2;stroke-linecap:butt;stroke-linejoin:miter;stroke:rgb(0%,0%,0%);stroke-opacity:1;stroke-miterlimit:10;" d="M 187.398438 158.589844 L 200.375 144.78125 "/>
<path style="fill:none;stroke-width:1.2;stroke-linecap:butt;stroke-linejoin:miter;stroke:rgb(0%,0%,0%);stroke-opacity:1;stroke-miterlimit:10;" d="M 200.375 144.78125 L 191.25 128.175781 "/>
<path style="fill:none;stroke-width:1.2;stroke-linecap:butt;stroke-linejoin:miter;stroke:rgb(0%,0%,0%);stroke-opacity:1;stroke-miterlimit:10;" d="M 218.988281 141.238281 L 200.375 144.78125 "/>
<path style="fill:none;stroke-width:1.2;stroke-linecap:butt;stroke-linejoin:miter;stroke:rgb(0%,0%,0%);stroke-opacity:1;stroke-miterlimit:10;" d="M 216.292969 137.210938 L 201.402344 140.046875 "/>
<path style="fill:none;stroke-width:1.2;stroke-linecap:butt;stroke-linejoin:miter;stroke:rgb(0%,0%,0%);stroke-opacity:1;stroke-miterlimit:10;" d="M 191.25 128.175781 L 197.738281 121.269531 "/>
<path style="fill:none;stroke-width:1.2;stroke-linecap:butt;stroke-linejoin:miter;stroke:rgb(0%,0%,100%);stroke-opacity:1;stroke-miterlimit:10;" d="M 197.738281 121.269531 L 204.226562 114.363281 "/>
<path style="fill:none;stroke-width:1.2;stroke-linecap:butt;stroke-linejoin:miter;stroke:rgb(0%,0%,0%);stroke-opacity:1;stroke-miterlimit:10;" d="M 195.796875 129.847656 L 200.988281 124.324219 "/>
<path style="fill:none;stroke-width:1.2;stroke-linecap:butt;stroke-linejoin:miter;stroke:rgb(0%,0%,100%);stroke-opacity:1;stroke-miterlimit:10;" d="M 200.988281 124.324219 L 206.175781 118.796875 "/>
<path style="fill:none;stroke-width:1.2;stroke-linecap:butt;stroke-linejoin:miter;stroke:rgb(0%,0%,0%);stroke-opacity:1;stroke-miterlimit:10;" d="M 172.636719 131.71875 L 191.25 128.175781 "/>
<path style="fill:none;stroke-width:1.2;stroke-linecap:butt;stroke-linejoin:miter;stroke:rgb(0%,0%,100%);stroke-opacity:1;stroke-miterlimit:10;" d="M 204.226562 114.363281 L 221.371094 122.4375 "/>
<path style=" stroke:none;fill-rule:nonzero;fill:rgb(100%,100%,100%);fill-opacity:1;" d="M 201.226562 108.863281 L 208.226562 108.863281 L 208.226562 119.863281 L 201.226562 119.863281 Z M 201.226562 108.863281 "/>
<g style="fill:rgb(0%,0%,100%);fill-opacity:1;">
  <use xlink:href="#glyph0-1" x="201.226562" y="117.526367"/>
</g>
<path style="fill:none;stroke-width:1.2;stroke-linecap:butt;stroke-linejoin:miter;stroke:rgb(0%,0%,100%);stroke-opacity:1;stroke-miterlimit:10;" d="M 221.371094 122.4375 L 220.179688 131.835938 "/>
<path style="fill:none;stroke-width:1.2;stroke-linecap:butt;stroke-linejoin:miter;stroke:rgb(0%,0%,0%);stroke-opacity:1;stroke-miterlimit:10;" d="M 220.179688 131.835938 L 218.988281 141.238281 "/>
<path style=" stroke:none;fill-rule:nonzero;fill:rgb(100%,100%,100%);fill-opacity:1;" d="M 214.371094 116.9375 L 228.371094 116.9375 L 228.371094 127.9375 L 214.371094 127.9375 Z M 214.371094 116.9375 "/>
<g style="fill:rgb(0%,0%,100%);fill-opacity:1;">
  <use xlink:href="#glyph0-1" x="214.371094" y="125.600586"/>
  <use xlink:href="#glyph0-2" x="221.348633" y="125.600586"/>
</g>
<path style="fill:none;stroke-width:1.2;stroke-linecap:butt;stroke-linejoin:miter;stroke:rgb(0%,0%,0%);stroke-opacity:1;stroke-miterlimit:10;" d="M 218.988281 141.238281 L 232.796875 154.210938 "/>
<path style="fill:none;stroke-width:1.2;stroke-linecap:butt;stroke-linejoin:miter;stroke:rgb(0%,0%,0%);stroke-opacity:1;stroke-miterlimit:10;" d="M 232.796875 154.210938 L 228.464844 172.660156 "/>
<path style="fill:none;stroke-width:1.2;stroke-linecap:butt;stroke-linejoin:miter;stroke:rgb(0%,0%,0%);stroke-opacity:1;stroke-miterlimit:10;" d="M 236.707031 157.078125 L 233.238281 171.835938 "/>
<path style="fill:none;stroke-width:1.2;stroke-linecap:butt;stroke-linejoin:miter;stroke:rgb(0%,0%,0%);stroke-opacity:1;stroke-miterlimit:10;" d="M 250.941406 148.742188 L 232.796875 154.210938 "/>
<path style="fill:none;stroke-width:1.2;stroke-linecap:butt;stroke-linejoin:miter;stroke:rgb(0%,0%,0%);stroke-opacity:1;stroke-miterlimit:10;" d="M 228.464844 172.660156 L 219.394531 175.394531 "/>
<path style="fill:none;stroke-width:1.2;stroke-linecap:butt;stroke-linejoin:miter;stroke:rgb(20%,80%,80%);stroke-opacity:1;stroke-miterlimit:10;" d="M 219.394531 175.394531 L 210.324219 178.132812 "/>
<path style="fill:none;stroke-width:1.2;stroke-linecap:butt;stroke-linejoin:miter;stroke:rgb(0%,0%,0%);stroke-opacity:1;stroke-miterlimit:10;" d="M 228.464844 172.660156 L 242.277344 185.636719 "/>
<path style=" stroke:none;fill-rule:nonzero;fill:rgb(100%,100%,100%);fill-opacity:1;" d="M 204.324219 172.632812 L 210.324219 172.632812 L 210.324219 183.632812 L 204.324219 183.632812 Z M 204.324219 172.632812 "/>
<g style="fill:rgb(20%,80%,80%);fill-opacity:1;">
  <use xlink:href="#glyph0-3" x="204.324219" y="181.295898"/>
</g>
<path style="fill:none;stroke-width:1.2;stroke-linecap:butt;stroke-linejoin:miter;stroke:rgb(0%,0%,0%);stroke-opacity:1;stroke-miterlimit:10;" d="M 242.277344 185.636719 L 260.417969 180.164062 "/>
<path style="fill:none;stroke-width:1.2;stroke-linecap:butt;stroke-linejoin:miter;stroke:rgb(0%,0%,0%);stroke-opacity:1;stroke-miterlimit:10;" d="M 242.800781 180.820312 L 257.316406 176.441406 "/>
<path style="fill:none;stroke-width:1.2;stroke-linecap:butt;stroke-linejoin:miter;stroke:rgb(0%,0%,0%);stroke-opacity:1;stroke-miterlimit:10;" d="M 260.417969 180.164062 L 264.75 161.714844 "/>
<path style="fill:none;stroke-width:1.2;stroke-linecap:butt;stroke-linejoin:miter;stroke:rgb(0%,0%,0%);stroke-opacity:1;stroke-miterlimit:10;" d="M 264.75 161.714844 L 250.941406 148.742188 "/>
<path style="fill:none;stroke-width:1.2;stroke-linecap:butt;stroke-linejoin:miter;stroke:rgb(0%,0%,0%);stroke-opacity:1;stroke-miterlimit:10;" d="M 260.316406 163.667969 L 249.269531 153.289062 "/>
<path style="fill:none;stroke-width:1.2;stroke-linecap:butt;stroke-linejoin:miter;stroke:rgb(0%,0%,0%);stroke-opacity:1;stroke-miterlimit:10;" d="M 172.636719 131.71875 L 157.546875 120.257812 "/>
<path style="fill:none;stroke-width:1.2;stroke-linecap:butt;stroke-linejoin:miter;stroke:rgb(0%,0%,0%);stroke-opacity:1;stroke-miterlimit:10;" d="M 157.546875 120.257812 L 140.074219 127.597656 "/>
<path style="fill:none;stroke-width:1.2;stroke-linecap:butt;stroke-linejoin:miter;stroke:rgb(0%,0%,0%);stroke-opacity:1;stroke-miterlimit:10;" d="M 157.523438 125.101562 L 143.546875 130.972656 "/>
<path style="fill:none;stroke-width:1.2;stroke-linecap:butt;stroke-linejoin:miter;stroke:rgb(0%,0%,0%);stroke-opacity:1;stroke-miterlimit:10;" d="M 85.28125 168.410156 L 67.8125 175.746094 "/>
</g>
</svg>

<svg xmlns="http://www.w3.org/2000/svg" xmlns:xlink="http://www.w3.org/1999/xlink" width="300pt" height="300pt" viewBox="0 0 300 300"><defs><symbol overflow="visible"><path d="M.453 1.594v-7.938h4.5v7.938zm.5-.5h3.5v-6.938h-3.5zm0 0"/></symbol><symbol overflow="visible" id="a"><path d="M.89-6.563H2.08l2.906 5.485v-5.484h.86V0H4.656L1.75-5.484V0H.89zm0 0"/></symbol><symbol overflow="visible" id="b"><path d="M.89-6.563h.876v2.688H5v-2.688h.89V0H5v-3.125H1.766V0H.89zm0 0"/></symbol><symbol overflow="visible" id="c"><path d="M.89-6.563h3.766v.75h-2.89v1.938h2.61v.734h-2.61V0H.89zm0 0"/></symbol></defs><g><path fill="#fff" d="M0 0h300v300H0z"/><path d="M35.25 171.625l17.473-7.34M52.723 164.285l2.38-18.797M67.813 175.746l-15.09-11.46M55.102 145.488l17.468-7.34M72.57 138.148l15.094 11.46M87.664 149.61l8.734-3.67" stroke-width="1.2" stroke="#000" stroke-miterlimit="10" fill="none"/><path d="M96.398 145.94l8.735-3.667" stroke-width="1.2" stroke="#00f" stroke-miterlimit="10" fill="none"/><path d="M87.664 149.61l-2.383 18.8" stroke-width="1.2" stroke="#000" stroke-miterlimit="10" fill="none"/><path d="M105.133 142.273l7.547 5.73" stroke-width="1.2" stroke="#00f" stroke-miterlimit="10" fill="none"/><path d="M112.68 148.004l7.543 5.73" stroke-width="1.2" stroke="#000" stroke-miterlimit="10" fill="none"/><path d="M98.133 136.773h14v11h-14zm0 0" fill="#fff"/><g fill="#00f"><use xlink:href="#a" x="98.133" y="145.437"/><use xlink:href="#b" x="105.11" y="145.437"/></g><path d="M120.223 153.734l17.472-7.34M137.695 146.395l15.09 11.46M141.898 143.992l12.075 9.168M140.074 127.598l-2.38 18.797M152.785 157.855l17.47-7.335M170.254 150.52l17.144 8.07M170.254 150.52l2.383-18.8M174.918 149.2l1.902-15.04M187.398 158.59l12.977-13.81M200.375 144.78l-9.125-16.604M218.988 141.238l-18.613 3.543M216.293 137.21l-14.89 2.837M191.25 128.176l6.488-6.906" stroke-width="1.2" stroke="#000" stroke-miterlimit="10" fill="none"/><path d="M197.738 121.27l6.49-6.907" stroke-width="1.2" stroke="#00f" stroke-miterlimit="10" fill="none"/><path d="M195.797 129.848l5.19-5.524" stroke-width="1.2" stroke="#000" stroke-miterlimit="10" fill="none"/><path d="M200.988 124.324l5.188-5.527" stroke-width="1.2" stroke="#00f" stroke-miterlimit="10" fill="none"/><path d="M172.637 131.72l18.613-3.544" stroke-width="1.2" stroke="#000" stroke-miterlimit="10" fill="none"/><path d="M204.227 114.363l17.144 8.075" stroke-width="1.2" stroke="#00f" stroke-miterlimit="10" fill="none"/><path d="M201.227 108.863h7v11h-7zm0 0" fill="#fff"/><use xlink:href="#a" x="201.227" y="117.526" fill="#00f"/><path d="M221.37 122.438l-1.19 9.398" stroke-width="1.2" stroke="#00f" stroke-miterlimit="10" fill="none"/><path d="M220.18 131.836l-1.192 9.402" stroke-width="1.2" stroke="#000" stroke-miterlimit="10" fill="none"/><path d="M214.37 116.938h14v11h-14zm0 0" fill="#fff"/><g fill="#00f"><use xlink:href="#a" x="214.371" y="125.601"/><use xlink:href="#b" x="221.349" y="125.601"/></g><path d="M218.988 141.238l13.81 12.973M232.797 154.21l-4.332 18.45M236.707 157.078l-3.47 14.758M250.94 148.742l-18.143 5.47M228.465 172.66l-9.07 2.735" stroke-width="1.2" stroke="#000" stroke-miterlimit="10" fill="none"/><path d="M219.395 175.395l-9.07 2.738" stroke-width="1.2" stroke="#3cc" stroke-miterlimit="10" fill="none"/><path d="M228.465 172.66l13.812 12.977" stroke-width="1.2" stroke="#000" stroke-miterlimit="10" fill="none"/><path d="M204.324 172.633h6v11h-6zm0 0" fill="#fff"/><use xlink:href="#c" x="204.324" y="181.296" fill="#3cc"/><path d="M242.277 185.637l18.14-5.473M242.8 180.82l14.516-4.38M260.418 180.164l4.332-18.45M264.75 161.715l-13.81-12.973M260.316 163.668l-11.046-10.38M172.637 131.72l-15.09-11.462M157.547 120.258l-17.473 7.34M157.523 125.102l-13.976 5.87M85.28 168.41l-17.468 7.336" stroke-width="1.2" stroke="#000" stroke-miterlimit="10" fill="none"/></g></svg>
